X:1005
T:Ar Eirinn
T:For Ireland, I Won't Say Her Name
R:Waltz
C:Trad.
O:Ireland
M:3/4
L:1/8
Q:1/4=90
K:G
GA|"G"B2D3D|"Am7"E2G3A|"G"B6-|B4GA|B2D3D|"Em"E2G3B|"D"A6-|A4GA|
"G"B2D3D|"C"Ec3BA|"G"B4AG|"C"E2"D"D3D|"C"EG3"D"A2|"G"BAG4-|G4Bc|
"G"d2B2BA|G3Bd2|"C"e6|"Em"g4e2|"G"d2B2BA|"Em"G3ABG|"D"A6-|A4dc|"G"B2D3D|
"C"E2c3A|"G"B4AG|"C"E2"D"D2D2|"Am7"EG3"D"A2|"G"BAG4-|G4|]

